lib/svg/book.svg

<svg xmlns="http://www.w3.org/2000/svg" width="16" height="16" viewBox="0 0 16 16"><path d="M3 5h4v1H3V5zm0 3h4V7H3v1zm0 2h4V9H3v1zm11-5h-4v1h4V5zm0 2h-4v1h4V7zm0 2h-4v1h4V9zm2-6v9c0 .55-.45 1-1 1H9.5l-1 1-1-1H2c-.55 0-1-.45-1-1V3c0-.55.45-1 1-1h5.5l1 1 1-1H15c.55 0 1 .45 1 1zm-8 .5L7.5 3H2v9h6V3.5zm7-.5H9.5l-.5.5V12h6V3z"/></svg>

<?xml version="1.0" encoding="UTF-8" standalone="no"?>
<svg width="16px" height="16px" viewBox="0 0 16 16" version="1.1" xmlns="http://www.w3.org/2000/svg" xmlns:xlink="http://www.w3.org/1999/xlink">
    <!-- Generator: Sketch 3.8.3 (29802) - http://www.bohemiancoding.com/sketch -->
    <title>book</title>
    <desc>Created with Sketch.</desc>
    <defs></defs>
    <g id="Octicons" stroke="none" stroke-width="1" fill="none" fill-rule="evenodd">
        <g id="book" fill="#000000">
            <path d="M3,5 L7,5 L7,6 L3,6 L3,5 L3,5 Z M3,8 L7,8 L7,7 L3,7 L3,8 L3,8 Z M3,10 L7,10 L7,9 L3,9 L3,10 L3,10 Z M14,5 L10,5 L10,6 L14,6 L14,5 L14,5 Z M14,7 L10,7 L10,8 L14,8 L14,7 L14,7 Z M14,9 L10,9 L10,10 L14,10 L14,9 L14,9 Z M16,3 L16,12 C16,12.55 15.55,13 15,13 L9.5,13 L8.5,14 L7.5,13 L2,13 C1.45,13 1,12.55 1,12 L1,3 C1,2.45 1.45,2 2,2 L7.5,2 L8.5,3 L9.5,2 L15,2 C15.55,2 16,2.45 16,3 L16,3 Z M8,3.5 L7.5,3 L2,3 L2,12 L8,12 L8,3.5 L8,3.5 Z M15,3 L9.5,3 L9,3.5 L9,12 L15,12 L15,3 L15,3 Z" id="Shape"></path>
        </g>
    </g>
</svg>
